!!!!SEGMENT: pl-gd--ee-1638--002-041_marenzio-luca--motettorum-pro-festis-totius-anni-in-festo-virginum-veni-sponsa-christi.krn
!!!cenid: 15xx:1044
!!!COM: Marenzio, Luca
!!!COM-rismID: pe30003955
!!!CDT: ~1553-1599/08/22
!!!CNT: Italian
!!!GTL: Motettorum pro festis totius anni
!!!OTL: In festo Virginum/Veni sponsa Christi
!!!OMV: 041
!!!PDT: 1588
!!!AGN:
!!!YEC: Copyright 2022 Narodowy Instytut Fryderyka Chopina (https://polishscores.org)
!!!YEM: License CC-BY-4.0 (https://creativecommons.org/licenses/by/4.0)
!!!SMS-siglum: PL-GD
!!!SMS-shelfmark: Ee 1638
!!!SMS-variant:
!!!SMS-altvar:
!!!SMS-shelfwork: 002-041 G
!!!NIFC-rismSourceID: 1001202747
!!!NIFC-rismChildID: 990039238
!!!NIFC-islandoraID: pl-gd:57883
!!!URL-pdf-islandora: https://repozytorium.nifc.pl/islandora/object/pl-gd%3A57883/datastream/PDF/view
!!!URL-scan: https://polish.musicsources.pl/pl/lokalizacje/galeria/klocki-introligatorskie/655 @EN{Scan on Polish Music Sources Website} @PL{Skany w portalu Dziedzictwo Muzyki Polskiej w otwartym dostępie}
!!!IIIF: https://repozytorium.nifc.pl/islandora/object/pl-gd%3A57883/datastream/IIIF/view
!!!ONB-nifc: UWAGA: Cantus: s. 636 (prawa), Altus: s. 484 (prawa), Tenor: s. 332 (prawa), Bassus: s. 180 (prawa)
!!!AIN: 1 alto 1 bass 1 soprn 1 tenor
!!!key: d:aeo
**kern	**text	**kern	**text	**kern	**text	**kern	**text
*part4	*part4	*part3	*part3	*part2	*part2	*part1	*part1
*staff4	*staff4	*staff3	*staff3	*staff2	*staff2	*staff1	*staff1
*ICvox	*	*ICvox	*	*ICvox	*	*ICvox	*
*Ibass	*	*Itenor	*	*Ialto	*	*Isoprn	*
*mI"Basso	*	*mI"Tenore	*	*mI"Alto	*	*mI"Soprano	*
*I"BASSVS	*	*I"TENOR	*	*I"ALTVS	*	*I"CANTVS	*
*I'B	*	*I'T	*	*I'A	*	*I'S	*
*clefF4	*	*clefC4	*	*clefC3	*	*clefC1	*
*	*	*mclefGv2	*	*mclefGv2	*	*mclefG2	*
*k[b-]	*	*k[b-]	*	*k[b-]	*	*k[b-]	*
*d:aeo	*	*d:aeo	*	*d:aeo	*	*d:aeo	*
*M2/1	*	*M2/1	*	*M2/1	*	*M2/1	*
*met(C|)	*	*met(C|)	*	*met(C|)	*	*met(C|)	*
*mmet(c|)	*	*mmet(c|)	*	*mmet(c|)	*	*mmet(c|)	*
=1-	=1-	=1-	=1-	=1-	=1-	=1-	=1-
*xywh-#180:4580,558,3520,864	*	*xywh-#332:4481,499,3526,829	*	*xywh-#484:4570,493,3456,862	*	*xywh-#636:4496,520,3501,822	*
!LO:TX:t=P:problem=przy kluczu BB- B-	!	!	!	!	!	!	!
!LO:TX:a:i:mod= :t=In festo Virginum	!	!LO:TX:a:i:mod= :t=In festo Virginum	!	!LO:TX:a:i:mod= :t=In festo Virginum	!	!LO:TX:a:i:mod= :t=In festo Virginum	!LO:SIC:s=Ve-
00r	.	00r	.	1r	.	1.d	VE-
!	!	!	!	!	!LO:SIC:s=Ve-	!	!
.	.	.	.	1.d	VE-	.	.
.	.	.	.	.	.	2e/	-ni
=2-	=2-	=2-	=2-	=2-	=2-	=2-	=2-
!	!	!	!	!	!	!	!LO:SIC:s=spon-
.	.	.	.	.	.	2f/	ſpo(n)-
.	.	.	.	2e\	-ni	2g/	-ſa
.	.	.	.	2f\	ſpon-	4a\	Chri-
.	.	.	.	.	.	4b-\	.
.	.	.	.	2c/	-ſa	4cc\	.
.	.	.	.	.	.	4a\	.
=3-	=3-	=3-	=3-	=3-	=3-	=3-	=3-
!	!	!	!LO:SIC:s=Ve-	!	!	!	!
00r	.	1.D	VE-	2.d\	Chri-	4b-\	.
.	.	.	.	.	.	4a\	.
.	.	.	.	.	.	1a	.
.	.	.	.	4c/	.	.	.
.	.	.	.	1B-	.	.	.
.	.	2E/	-ni	.	.	2g/	.
=4-	=4-	=4-	=4-	=4-	=4-	=4-	=4-
.	.	2F/	ſpon-	2A/	-ſti	2a\	-ſti
*	*	*	*	*	*ij	*	*
!	!	!	!	!	!LO:SIC:s=ve-	!	!
.	.	2G/	-ſa	2d\	VE-	4g/	.
.	.	.	.	.	.	4f/	.
*	*	*	*	*	*	*lig	*
.	.	4A/	Chri-	1c	-ni	1e	.
.	.	4B-\	.	.	.	.	.
.	.	4c\	.	.	.	.	.
.	.	4A\	.	.	.	.	.
=5-	=5-	=5-	=5-	=5-	=5-	=5-	=5-
*	*	*	*	*	*	*col	*
!	!LO:SIC:s=Ve-	!	!	!	!	!	!
1.D	VE-	4B-\	.	2.f\	ſpon-	2.d/	.
.	.	4A\	.	.	.	.	.
.	.	1A	.	.	.	.	.
*	*	*	*	*	*	*Xlig	*
.	.	.	.	4e\	.	4e/	.
*	*	*	*	*	*	*Xcol	*
.	.	.	.	2d\	.	2f/	.
2E\	-ni	2G/	.	2.c/	-ſa	4e/	.
.	.	.	.	.	.	4d/	.
=6-	=6-	=6-	=6-	=6-	=6-	=6-	=6-
2F\	ſpon-	0A	-ſti	.	.	1c	.
.	.	.	.	4d\	.	.	.
2C/	-ſa	.	.	2e\	.	.	.
2.D/	Chri-	.	.	2.f\	Chri-	2r	.
*	*	*	*	*	*	*	*ij
!	!	!	!	!	!	!	!LO:SIC:s=ve-
.	.	.	.	.	.	1d/	VE-
4C/	.	.	.	4e\	.	.	.
=7-	=7-	=7-	=7-	=7-	=7-	=7-	=7-
0BB-	.	1r	.	0d	.	.	.
.	.	.	.	.	.	2e/	-ni
*	*	*	*ij	*	*	*custos:f	*
*	*	*	*	*	*	*xywh-#636:4480,1187,3524,667	*
!	!	!	!LO:SIC:s=ve-	!	!	!LO:LB:g=original	!LO:SIC:s=spon-
.	.	1D	VE-	.	.	2f/	ſpo(n)-
.	.	.	.	.	.	2g/	-ſa
*	*	*	*	*custos:c	*	*	*
!	!	!	!	!LO:LB:g=original	!	!	!
=8-	=8-	=8-	=8-	=8-	=8-	=8-	=8-
*	*	*	*	*xywh-#484:4586,1191,3487,736	*	*	*
1AA	-ſti	1E	-ni	4c/	-ſti	4a\	Chri-
.	.	.	.	4d\	.	4b-\	.
.	.	.	.	4e\	.	4cc\	.
.	.	.	.	4c/	.	4a\	.
*	*ij	*	*	*	*	*	*
!	!LO:SIC:s=ve-	!	!	!	!	!	!
1.D	VE-	1.F	ſpon-	4d\	.	4b-\	.
.	.	.	.	4e\	.	4a\	.
.	.	.	.	1f\	.	1a\	.
=9-	=9-	=9-	=9-	=9-	=9-	=9-	=9-
.	.	.	.	.	.	.	.
2E\	-ni	2G/	-ſa	4e\	.	2g/	.
.	.	.	.	4d\	.	.	.
1F	ſpon-	4A/	Chri-	1c	.	2.f/	-ſti
.	.	4B-\	.	.	.	.	.
.	.	4c\	.	.	.	.	.
.	.	4A/	.	.	.	4e/	.
*	*	*custos:B	*	*	*	*	*Xij
!	!	!LO:LB:g=original	!	!	!	!	!
=10-	=10-	=10-	=10-	=10-	=10-	=10-	=10-
*	*	*xywh-#332:4473,1130,3442,745	*	*	*	*	*
1G	-ſa	4B-\	.	0r	.	2.d/	.
.	.	4c\	.	.	.	.	.
.	.	4d\	.	.	.	.	.
.	.	4B-\	.	.	.	4e/	.
*custos:A	*	*	*	*	*	*	*
*xywh-#180:4557,1210,3473,730	*	*	*	*	*	*	*
!LO:LB:g=original	!	!	!	!	!	!	!
4A\	Chri-	1c	.	.	.	4f/	.
4B-\	.	.	.	.	.	8e/	.
.	.	.	.	.	.	8d/	.
4c\	.	.	.	.	.	4e/	.
4B-\	.	.	.	.	.	4f/	.
=11-	=11-	=11-	=11-	=11-	=11-	=11-	=11-
!	!	!	!	!	!LO:SIC:s=ve-	!	!
2.B-\	.	0d	-ſti	1.G	VE-	0.g	.
4A\	.	.	.	.	.	.	.
2G\	.	.	.	.	.	.	.
2F\	.	.	.	2A/	-ni	.	.
=12-	=12-	=12-	=12-	=12-	=12-	=12-	=12-
!	!	!	!LO:SIC:s=ve-	!	!	!	!
1E-X	.	2G/	VE-	2B-/	ſpon-	.	.
.	.	2A/	-ni	2c/	-ſa	.	.
1D	-ſti	2B-\	ſpon-	4d\	Chri-	1r	.
*	*Xij	*	*	*	*	*	*
.	.	.	.	4e\	.	.	.
.	.	2F/	-ſa	4f\	.	.	.
.	.	.	.	4d\	.	.	.
=13-	=13-	=13-	=13-	=13-	=13-	=13-	=13-
0r	.	2.G/	Chri-	4e-X\	.	2r	.
.	.	.	.	4d\	.	.	.
.	.	.	.	1d	.	1g	ac-
.	.	4F/	.	.	.	.	.
.	.	1E-X	.	.	.	.	.
.	.	.	.	2c/	.	2g/	-ci-
=14-	=14-	=14-	=14-	=14-	=14-	=14-	=14-
2r	.	1D	-ſti	2.d\	-ſti	1f	-pe
*	*	*	*Xij	*	*Xij	*	*
1D	ac-	.	.	.	.	.	.
.	.	.	.	4eny\	.	.	.
.	.	1r	.	2.f\	.	2a\	co-
2D/	-ci-	.	.	.	.	2.b-\	-ro-
.	.	.	.	8e\	.	.	.
.	.	.	.	8d\	.	.	.
*	*	*	*	*custos:c	*	*	*
!	!	!	!	!LO:LB:g=original	!	!	!
=15-	=15-	=15-	=15-	=15-	=15-	=15-	=15-
*	*	*	*	*xywh-#484:4578,1700,3417,775	*	*	*
1F	-pe	1r	.	0c	.	.	.
.	.	.	.	.	.	8a\	.
.	.	.	.	.	.	8g\	.
.	.	.	.	.	.	4a\	.
.	.	.	.	.	.	4b-\	.
2Eny\	co-	2r	.	.	.	4cc\	.
.	.	.	.	.	.	4b-\	.
*	*	*	*	*	*	*custos:a	*
*	*	*	*	*	*	*xywh-#636:4480,1708,3501,690	*
!	!	!	!	!	!	!LO:LB:g=original	!
2.F\	-ro-	1c\	ac-	.	.	2.a\	.
=16-	=16-	=16-	=16-	=16-	=16-	=16-	=16-
.	.	.	.	1r	.	.	.
8E\	.	.	.	.	.	8g/	.
8D\	.	.	.	.	.	8f/	.
4E\	.	2c\	-ci-	.	.	4g/	.
4F\	.	.	.	.	.	4a\	.
1G	.	1B-	-pe	2r	.	2.d/	.
.	.	.	.	1d\	ac-	.	.
.	.	.	.	.	.	4e/	.
=17-	=17-	=17-	=17-	=17-	=17-	=17-	=17-
0D	-nam	2A/	co-	.	.	2.f/	.
.	.	2.B-\	-ro-	2d\	-ci-	.	.
.	.	.	.	.	.	4e/	.
.	.	.	.	1f	-pe	4d/	.
.	.	8A/	.	.	.	4e/	.
.	.	8G/	.	.	.	.	.
.	.	4A/	.	.	.	4f/	.
.	.	4B-\	.	.	.	4g/	.
*	*	*custos:c	*	*	*	*	*
!	!	!LO:LB:g=original	!	!	!	!	!
=18-	=18-	=18-	=18-	=18-	=18-	=18-	=18-
*	*	*xywh-#332:4497,1714,3480,714	*	*	*	*	*
1r	.	4c\	.	2e\	co-	2.a\	.
.	.	4A/	.	.	.	.	.
.	.	2d\	.	2.f\	-ro-	.	.
.	.	.	.	.	.	8g/	.
.	.	.	.	.	.	8f/	.
2r	.	1c	-nam	.	.	2.g/	.
.	.	.	.	8e\	.	.	.
.	.	.	.	8d\	.	.	.
*	*ij	*	*	*	*	*	*
1C/	ac-	.	.	4e\	.	.	.
.	.	.	.	4f\	.	4f/	.
=19-	=19-	=19-	=19-	=19-	=19-	=19-	=19-
.	.	2r	.	2g\	.	1e	.
*custos:C	*	*	*ij	*	*	*	*
*xywh-#180:4564,1721,3442,738	*	*	*	*	*	*	*
!LO:LB:g=original	!	!	!	!	!	!	!
2C/	-ci-	1G	ac-	2c/	-nam	.	.
1BB-	-pe	.	.	2r	.	1d	-nam
.	.	2G/	-ci-	2d\	co-	.	.
=20-	=20-	=20-	=20-	=20-	=20-	=20-	=20-
2AA/	co-	1F	-pe	4f\	-ro-	0r	.
.	.	.	.	4e\	.	.	.
2.BB-/	-ro-	.	.	4d\	.	.	.
.	.	.	.	4c/	.	.	.
.	.	2D/	co-	4d\	.	.	.
8AA/	.	.	.	8c/	.	.	.
8GG/	.	.	.	8B-/	.	.	.
4AA/	.	2.F/	-ro-	4c/	.	.	.
4BB-/	.	.	.	4d\	.	.	.
=21-	=21-	=21-	=21-	=21-	=21-	=21-	=21-
1C	.	.	.	2.G/	.	2r	.
.	.	8Eny/	.	.	.	.	.
.	.	8D/	.	.	.	.	.
.	.	4E/	.	.	.	1g	ve-
.	.	4F/	.	4A/	.	.	.
0.GG	-nam	1.G	.	2B-/	.	.	.
*	*Xij	*	*	*	*	*	*
.	.	.	.	2c/	.	2a\	-ni
*	*	*	*	*custos:d	*	*	*
!	!	!	!	!LO:LB:g=original	!	!	!
=22-	=22-	=22-	=22-	=22-	=22-	=22-	=22-
*	*	*	*	*xywh-#484:4586,2257,3362,768	*	*	*
!	!	!	!	!	!LO:SIC:s=-nam	!	!
.	.	.	.	0d	-[nam]	2b-\	ſpon-
.	.	2A/	.	.	.	2cc\	-ſa
.	.	2.B-\	.	.	.	1dd	Chri-
.	.	4c\	.	.	.	.	.
=23-	=23-	=23-	=23-	=23-	=23-	=23-	=23-
00r	.	1d	.	1r	.	2dd\	-ſti
.	.	.	.	.	.	1d	ve-
.	.	1G	-nam	1.d	ve-	.	.
*	*	*	*Xij	*	*	*	*
.	.	.	.	.	.	2e/	-ni
*	*	*	*	*	*	*custos:f	*
!	!	!	!	!	!	!LO:LB:g=original	!
=24-	=24-	=24-	=24-	=24-	=24-	=24-	=24-
*	*	*	*	*	*	*xywh-#636:4488,2282,3571,667	*
.	.	00r	.	.	.	2f/	ſpon-
.	.	.	.	2e\	-ni	2g/	-ſa
.	.	.	.	2f\	ſpon-	4a\	Chri-
.	.	.	.	.	.	4b-\	.
.	.	.	.	2c/	-ſa	4cc\	.
.	.	.	.	.	.	4a\	.
=25-	=25-	=25-	=25-	=25-	=25-	=25-	=25-
0r	.	.	.	2.d\	Chri-	4b-\	.
.	.	.	.	.	.	4a\	.
.	.	.	.	.	.	1a	.
.	.	.	.	4c/	.	.	.
.	.	.	.	1B-	.	.	.
.	.	.	.	.	.	2g/	.
=26-	=26-	=26-	=26-	=26-	=26-	=26-	=26-
1r	.	2r	.	0A	-ſti	4a\	-ſti
.	.	.	.	.	.	4g/	.
.	.	1D	ve-	.	.	4f/	.
.	.	.	.	.	.	4e/	.
1.D	ve-	.	.	.	.	1.f	.
.	.	2E/	-ni	.	.	.	.
=27-	=27-	=27-	=27-	=27-	=27-	=27-	=27-
.	.	2F/	ſpon-	0r	.	.	.
2E\	-ni	2G/	-ſa	.	.	4e/	.
.	.	.	.	.	.	4d/	.
*	*	*custos:A	*	*	*	*	*
*	*	*xywh-#332:4512,2251,3380,691	*	*	*	*	*
!	!	!LO:LB:g=original	!	!	!	!	!
2F\	ſpon-	4A/	Chri-	.	.	1c	.
.	.	4B-\	.	.	.	.	.
2C/	-ſa	4c\	.	.	.	.	.
.	.	4A/	.	.	.	.	.
=28-	=28-	=28-	=28-	=28-	=28-	=28-	=28-
2.D/	Chri-	4B-\	.	1r	.	2r	.
.	.	4A/	.	.	.	.	.
.	.	1A	.	.	.	1d	ve-
4C/	.	.	.	.	.	.	.
*	*	*	*	*	*ij	*	*
0BB-	.	.	.	1.d	ve-	.	.
.	.	2G/	.	.	.	2e/	-ni
=29-	=29-	=29-	=29-	=29-	=29-	=29-	=29-
.	.	2F/	.	.	.	2f/	ſpon-
.	.	4E/	.	2e\	-ni	2g\	-ſa
.	.	4D/	.	.	.	.	.
1AA	-ſti	4C/	.	2f\	ſpon-	4a\	Chri-
.	.	4D/	.	.	.	4b-\	.
.	.	2E/	.	2c/	-ſa	4cc\	.
.	.	.	.	.	.	4a\	.
=30-	=30-	=30-	=30-	=30-	=30-	=30-	=30-
0r	.	2D/	-ſti	2.d\	Chri-	4b-\	.
.	.	.	.	.	.	4a\	.
*	*	*	*ij	*	*	*	*
.	.	1d	ve-	.	.	1a	.
.	.	.	.	4c/	.	.	.
.	.	.	.	1B-	.	.	.
.	.	2e\	-ni	.	.	2g/	.
*	*	*	*	*	*	*custos:a	*
!	!	!	!	!	!	!LO:LB:g=original	!
=31-	=31-	=31-	=31-	=31-	=31-	=31-	=31-
*	*	*	*	*	*	*xywh-#636:4457,2810,3610,706	*
1r	.	2f\	ſpon-	1A	-ſti	0a	-ſti
*	*	*	*	*	*Xij	*	*
.	.	2c\	-ſa	.	.	.	.
2r	.	2.d\	Chri-	2r	.	.	.
1D\	ac-	.	.	1f\	ac-	.	.
.	.	4c\	.	.	.	.	.
=32-	=32-	=32-	=32-	=32-	=32-	=32-	=32-
.	.	1B-	.	.	.	2r	.
*custos:D	*	*	*	*	*	*	*
*xywh-#180:4557,2279,3497,754	*	*	*	*	*	*	*
!LO:LB:g=original	!	!	!	!	!	!	!
2D/	-ci-	.	.	2d\	-ci-	1f	ac-
1F	-pe	1A	-ſti	1c	-pe	.	.
*	*	*	*Xij	*	*	*	*
.	.	.	.	.	.	2cc\	-ci-
=33-	=33-	=33-	=33-	=33-	=33-	=33-	=33-
2E\	co-	2r	.	2g\	co-	1cc	-pe
*	*	*	*	*custos:a	*	*	*
*	*	*	*	*xywh-#484:4594,2837,3385,689	*	*	*
!	!	!	!	!LO:LB:g=original	!	!	!
2.F\	-ro-	1c	ac-	2.a\	-ro-	.	.
.	.	.	.	.	.	2r	.
8E\	.	.	.	8g\	.	.	.
8D\	.	.	.	8f\	.	.	.
4E\	.	2c\	-ci-	2e\	.	1g\	ac-
4F\	.	.	.	.	.	.	.
*	*	*custos:B	*	*	*	*	*
!	!	!LO:LB:g=original	!	!	!	!	!
=34-	=34-	=34-	=34-	=34-	=34-	=34-	=34-
*	*	*xywh-#332:4512,2789,3550,706	*	*	*	*	*
1G	.	1B-	-pe	1d	-nam	.	.
.	.	.	.	.	.	2g/	-ci-
0D	-nam	2A/	co-	2r	.	1f	-pe
*	*	*	*	*	*ij	*	*
.	.	2.B-\	-ro-	1f\	ac-	.	.
=35-	=35-	=35-	=35-	=35-	=35-	=35-	=35-
.	.	.	.	.	.	2d/	co-
.	.	8A/	.	.	.	.	.
.	.	8G/	.	.	.	.	.
.	.	4A/	.	2d\	-ci-	2.f/	-ro-
.	.	4B-\	.	.	.	.	.
2r	.	1c	.	2g\	-pe	.	.
.	.	.	.	.	.	8e/	.
.	.	.	.	.	.	8d/	.
*	*ij	*	*	*	*	*	*
1C/	ac-	.	.	2g\	co-	4e/	.
.	.	.	.	.	.	4f/	.
=36-	=36-	=36-	=36-	=36-	=36-	=36-	=36-
!	!	!	!LO:SIC:s=-nam	!	!	!	!
.	.	2G/	-na(m)	2.e\	-ro-	2.g/	.
*	*	*	*ij	*	*	*	*
2C/	-ci-	1G	ac-	.	.	.	.
.	.	.	.	8d\	.	4a\	.
.	.	.	.	8c\	.	.	.
1BB-	-pe	.	.	4d\	.	4b-\	.
.	.	.	.	4e\	.	4cc\	.
.	.	2D/	-ci-	2f\	.	4dd\	.
.	.	.	.	.	.	4b-\	.
=37-	=37-	=37-	=37-	=37-	=37-	=37-	=37-
2AA/	co-	1F	-pe	0f	-nam	4cc\	.
*	*	*	*	*	*Xij	*	*
.	.	.	.	.	.	4a\	.
2.BB-/	-ro-	.	.	.	.	2.dd\	.
.	.	2D/	co-	.	.	.	.
8AA/	.	.	.	.	.	8cc\	.
8GG/	.	.	.	.	.	8b-\	.
4AA/	.	2.F/	-ro-	.	.	4cc\	.
4BB-/	.	.	.	.	.	4dd\	.
=38-	=38-	=38-	=38-	=38-	=38-	=38-	=38-
1C	.	.	.	2c/	co-	0g	.
.	.	8E/	.	.	.	.	.
.	.	8D/	.	.	.	.	.
.	.	4E/	.	2.c/	-ro-	.	.
.	.	4F/	.	.	.	.	.
1GG	-nam	2.G/	.	.	.	.	.
*	*Xij	*	*	*	*	*	*
.	.	.	.	8B-/	.	.	.
.	.	.	.	8A/	.	.	.
.	.	.	.	4B-/	.	.	.
.	.	8F/	.	4c/	.	.	.
.	.	8E/	.	.	.	.	.
=39-	=39-	=39-	=39-	=39-	=39-	=39-	=39-
2r	.	4D/	.	4d\	.	1f	-nam
.	.	4E/	.	8c/	.	.	.
.	.	.	.	8B-/	.	.	.
2D/	quam	4F/	.	4A/	.	.	.
.	.	4D/	.	4F/	.	.	.
*custos:E	*	*custos:G	*	*custos:B	*	*custos:b	*
*xywh-#180:4604,2837,3426,723	*	*xywh-#332:4489,3350,3511,714	*	*xywh-#484:4570,3338,3401,705	*	*xywh-#636:4504,3338,3447,714	*
!LO:LB:g=original	!	!LO:LB:g=original	!	!LO:LB:g=original	!	!LO:LB:g=original	!
2E-X\	ti-	4G/	.	4B-/	.	1r	.
.	.	4A/	.	4c/	.	.	.
2D/	-bi	2.B-\	.	2d\	.	.	.
=40-	=40-	=40-	=40-	=40-	=40-	=40-	=40-
!	!LO:SIC:s=Do-	!	!	!	!	!	!
2.F\	do-	.	.	1c	-nam	1r	.
.	.	8A/	.	.	.	.	.
.	.	8G/	.	.	.	.	.
.	.	2A/	.	.	.	.	.
4F\	-mi-	.	.	.	.	.	.
!	!	!	!LO:SIC:s=-nam	!	!	!	!
1BB-	-nus	1B-	-na(m)	2r	.	2r	.
*	*	*	*Xij	*	*	*	*
!	!	!	!	!	!LO:SIC:s=quam	!	!LO:SIC:s=quam
.	.	.	.	2d\	qua(m)	2b-\	qua(m)
=41-	=41-	=41-	=41-	=41-	=41-	=41-	=41-
2F\	prae-	0r	.	2c/	ti-	2a\	ti-
2G\	-pa-	.	.	2B-/	-bi	2b-\	-bi
!	!	!	!	!	!LO:SIC:s=Do-	!	!LO:SIC:s=Do-
1E-X	-ra-	.	.	2B-/	do-	2.g/	do-
.	.	.	.	2c/	-mi-	.	.
.	.	.	.	.	.	4g/	-mi-
=42-	=42-	=42-	=42-	=42-	=42-	=42-	=42-
!	!LO:SIC:s=-vit	!	!	!	!	!	!
1D	-uit	2r	.	2d\	-nus	0dd	-nus
!	!	!	!LO:SIC:s=quam	!	!	!	!
.	.	2A/	qua(m)	1f	prae-	.	.
2BB-/	in	2B-\	ti-	.	.	.	.
!	!LO:SIC:s=ae-	!	!	!	!	!	!
2D/	ę-	2A/	-bi	2f\	-pa-	.	.
=43-	=43-	=43-	=43-	=43-	=43-	=43-	=43-
!	!	!	!LO:SIC:s=Do-	!	!	!	!
1C	-ter-	2.c\	do-	1e-X	-ra-	2g/	prae-
.	.	.	.	.	.	2a\	-pa-
.	.	4c\	-mi-	.	.	.	.
!	!	!	!	!	!LO:SIC:s=-vit	!	!
1BB-	-num	1F	-nus	2d\	-it	2.b-\	-ra-
*	*	*	*	*	*ij	*	*
!	!	!	!	!	!LO:SIC:s=quam	!	!
.	.	.	.	2f\	qua(m)	.	.
.	.	.	.	.	.	4a\	.
=44-	=44-	=44-	=44-	=44-	=44-	=44-	=44-
!	!	!	!LO:SIC:s=prae-	!	!	!	!
0r	.	2c\	prę-	2eny\	ti-	4g/	.
.	.	.	.	.	.	4e/	.
.	.	2d\	-pa-	2f\	-bi	1a	.
!	!	!	!	!	!LO:SIC:s=Do-	!	!
.	.	1B-	-ra-	2.d\	do-	.	.
!	!	!	!	!	!	!	!LO:SIC:s=-vit
.	.	.	.	.	.	2g/	-uit
.	.	.	.	4d\	-mi-	.	.
=45-	=45-	=45-	=45-	=45-	=45-	=45-	=45-
!	!	!	!LO:SIC:s=-vit	!	!	!	!
2r	.	1A	-uit	1c	-nus	2f/	in
!	!LO:SIC:s=quam	!	!	!	!	!	!
2AA/	qua(m)	.	.	.	.	2e/	ae-
2BB-/	ti-	2F/	in	2f\	prae-	4d/	-ter-
.	.	.	.	.	.	4e/	.
!	!	!	!LO:SIC:s=ae-	!	!	!	!
2AA/	-bi	2A/	ę-	2c/	-pa-	2.f/	.
=46-	=46-	=46-	=46-	=46-	=46-	=46-	=46-
!	!LO:SIC:s=Do-	!	!	!	!	!	!
2.C/	do-	1G	-ter-	0c	-ra-	.	.
.	.	.	.	.	.	8e/	.
.	.	.	.	.	.	8d/	.
.	.	.	.	.	.	2e/	.
4C/	-mi-	.	.	.	.	.	.
*custos:FF	*	*	*	*	*	*	*
*xywh-#180:4564,3379,3497,754	*	*	*	*	*	*	*
!LO:LB:g=original	!	!	!	!	!	!	!
2FF/	-nus	2F/	-num	.	.	1f	-num
*	*ij	*	*ij	*	*	*	*
!	!LO:SIC:s=quam	!	!LO:SIC:s=quam	!	!	!	!
2F\	qua(m)	2A/	qua(m)	.	.	.	.
*	*	*	*	*custos:c	*	*custos:a	*
!	!	!	!	!LO:LB:g=original	!	!LO:LB:g=original	!
=47-	=47-	=47-	=47-	=47-	=47-	=47-	=47-
*	*	*	*	*xywh-#484:4563,3879,3440,744	*	*xywh-#636:4519,3920,3563,675	*
!	!	!	!	!	!LO:SIC:s=-vit	!	!
2Eny\	ti-	2G/	ti-	1c	-uit	2r	.
*	*	*	*	*	*Xij	*	*
!	!	!	!	!	!	!	!LO:SIC:s=quam
2F\	-bi	2A/	-bi	.	.	2a\	qua(m)
*	*	*custos:d	*	*	*	*	*
*	*	*xywh-#332:4527,3888,3488,699	*	*	*	*	*
!	!LO:SIC:s=Do-	!LO:LB:g=original	!LO:SIC:s=Do-	!	!	!	!
2.D/	do-	2.d\	do-	1r	.	2b-\	ti-
.	.	.	.	.	.	2a\	-bi
4D/	-mi-	4f\	-mi-	.	.	.	.
=48-	=48-	=48-	=48-	=48-	=48-	=48-	=48-
!	!	!	!	!	!	!	!LO:SIC:s=Do-
1A	-nus	2e\	-nus	2r	.	2.cc\	do-
*	*Xij	*	*	*	*	*	*
!	!	!	!LO:SIC:s=prae-	!	!	!	!
.	.	1A	prę-	2e\	quam	.	.
.	.	.	.	.	.	4cc\	-mi-
!	!LO:SIC:s=prae-	!	!	!	!	!	!
2D/	prę-	.	.	2f\	ti-	2.a\	-nus
2C/	-pa-	1c\	-pa-	2e\	-bi	.	.
.	.	.	.	.	.	8g/	.
.	.	.	.	.	.	8f/	.
=49-	=49-	=49-	=49-	=49-	=49-	=49-	=49-
!	!	!	!	!	!LO:SIC:s=Do-	!	!
1E	-ra-	.	.	2.g\	do-	1e	.
.	.	2G/	-ra-	.	.	.	.
.	.	.	.	4g\	-mi-	.	.
!	!LO:SIC:s=-vit	!	!LO:SIC:s=-vit	!	!	!	!
1F	-uit	1A	-uit	2c/	-nus	2r	.
*	*	*	*	*	*	*	*ij
!	!	!	!	!	!LO:SIC:s=prae-	!	!LO:SIC:s=quam
.	.	.	.	1c\	prę-	2f/	qua(m)
=50-	=50-	=50-	=50-	=50-	=50-	=50-	=50-
2A\	in	2c\	in	.	.	2e/	ti-
!	!LO:SIC:s=ae-	!	!LO:SIC:s=ae-	!	!	!	!
2F\	ę-	2A/	ę-	2c/	-pa-	2f/	-bi
!	!	!	!	!	!	!	!LO:SIC:s=Do-
1G	-ter-	4B-\	-ter-	2.g\	-ra-	2.d/	do-
.	.	4c\	.	.	.	.	.
.	.	4d\	.	.	.	.	.
.	.	4B-\	.	4f\	.	4d/	-mi-
=51-	=51-	=51-	=51-	=51-	=51-	=51-	=51-
2A\	-num	4c\	.	4e\	.	1a	-nus
*	*	*	*	*	*	*	*Xij
.	.	4B-\	.	4d\	.	.	.
!	!LO:SIC:s=quam	!	!	!	!	!	!
2AA/	qua(m)	4A\	.	2c/	.	.	.
.	.	4G/	.	.	.	.	.
!	!	!	!	!	!LO:SIC:s=-vit	!	!LO:SIC:s=prae-
2BB-/	ti-	4F/	.	2.f\	-uit	2d/	prę-
.	.	4G/	.	.	.	.	.
2AA/	-bi	2A/	.	.	.	2c/	-pa-
.	.	.	.	8e\	.	.	.
.	.	.	.	8d\	.	.	.
=52-	=52-	=52-	=52-	=52-	=52-	=52-	=52-
!	!LO:SIC:s=Do-	!	!	!	!	!	!
2.C/	do-	1G	-num	1c	.	1e	-ra-
*	*	*	*Xij	*	*	*	*
4C/	-mi-	.	.	.	.	.	.
*custos:BB	*	*	*	*	*	*	*
*xywh-#180:4580,3945,3426,715	*	*	*	*	*	*	*
!LO:LB:g=original	!	!	!	!	!	!	!LO:SIC:s=-vit
1BB-	-nus	2r	.	2r	.	1f	-uit
!	!	!	!LO:SIC:s=quam	!	!LO:SIC:s=quam	!	!
.	.	2B-\	qua(m)	2d\	qua(m)	.	.
=53-	=53-	=53-	=53-	=53-	=53-	=53-	=53-
0r	.	2A/	ti-	2c/	ti-	2a\	in
.	.	2B-\	-bi	2d\	-bi	2f/	ae-
!	!	!	!LO:SIC:s=Do-	!	!LO:SIC:s=Do-	!	!
.	.	2.G/	do-	2.B-/	do-	1g	-ter-
.	.	4G/	-mi-	4B-/	-mi-	.	.
*	*	*	*	*custos:f	*	*	*
!	!	!	!	!LO:LB:g=original	!	!	!
=54-	=54-	=54-	=54-	=54-	=54-	=54-	=54-
*	*	*	*	*xywh-#484:4586,4436,3472,838	*	*	*
1D	quam	2d\	-nus	1f	-nus	2a\	-num
*	*	*	*	*	*	*xywh-#636:4511,4433,3517,737	*
*	*	*	*	*	*	*custos:b	*
!	!	!	!LO:SIC:s=prae-	!	!	!LO:LB:g=original	!
.	.	2d\	prę-	.	.	1b-	in
*	*	*xywh-#332:4512,4449,3411,791	*	*	*	*	*
*	*	*custos:G	*	*	*	*	*
!	!	!LO:LB:g=original	!	!	!	!	!
2E-X\	ti-	2G/	-pa-	1r	.	.	.
2D/	-bi	2.B-\	-ra-	.	.	2dd\	ae-
=55-	=55-	=55-	=55-	=55-	=55-	=55-	=55-
!	!LO:SIC:s=Do-	!	!	!	!	!	!
2.F\	do-	.	.	1r	.	1cc	-ter-
.	.	8A/	.	.	.	.	.
.	.	8G/	.	.	.	.	.
.	.	2A/	.	.	.	.	.
4F\	-mi-	.	.	.	.	.	.
!	!	!	!LO:SIC:s=-vit	!	!	!	!
1BB-	-nus	1B-	-uit	2r	.	2b-\	-num
!	!	!	!	!	!LO:SIC:s=quam	!	!
.	.	.	.	2B-/	qua(m)	2dd\	prae-
=56-	=56-	=56-	=56-	=56-	=56-	=56-	=56-
!	!LO:SIC:s=prae-	!	!	!	!	!	!
2F\	prę-	2r	.	2A/	ti-	2cc\	-pa-
2G\	-pa-	1d	prae-	2B-/	-bi	1b-	-ra-
!	!	!	!	!	!LO:SIC:s=Do-	!	!
1E-X	-ra-	.	.	2.G/	do-	.	.
!	!	!	!	!	!	!	!LO:SIC:s=-vit
.	.	2c\	-pa-	.	.	2g/	-uit
.	.	.	.	4G/	-mi-	.	.
=57-	=57-	=57-	=57-	=57-	=57-	=57-	=57-
!	!LO:SIC:s=-vit	!	!	!	!	!	!
1D	-uit	2B-\	-ra-	2d\	-nus	2r	.
!	!	!	!LO:SIC:s=-vit	!	!LO:SIC:s=prae-	!	!LO:SIC:s=quam
.	.	2A/	-uit	2f\	prę-	2a\	qua(m)
2BB-/	in	2G/	in	1d	-pa-	2b-\	ti-
2D/	ae-	2F/	ae-	.	.	2a\	-bi
=58-	=58-	=58-	=58-	=58-	=58-	=58-	=58-
!	!	!	!	!	!	!	!LO:SIC:s=Do-
1C	-ter-	2G/	-ter-	1e-X	-ra-	2.cc\	do-
.	.	2A/	-num	.	.	.	.
.	.	.	.	.	.	4cc\	-mi-
!	!	!	!	!	!LO:SIC:s=-vit	!	!
2BB-/	-num	2B-\	.	2d\	-uit	1f	-nus
1F\	in	4A/	.	2c/	in	.	.
.	.	4G/	.	.	.	.	.
=59-	=59-	=59-	=59-	=59-	=59-	=59-	=59-
!	!	!	!	!	!	!	!LO:SIC:s=prae-
.	.	1F	.	2A/	ae-	2cc\	prę-
2BB-/	ae-	.	.	4B-/	-ter-	2dd\	-pa-
.	.	.	.	4c/	.	.	.
2.BB-/	-ter-	2F/	in	4d\	.	1b-	-ra-
.	.	.	.	4eny\	.	.	.
!	!	!	!LO:SIC:s=ae-	!	!	!	!
.	.	2D/	ę-	2.f\	.	.	.
4C/	.	.	.	.	.	.	.
*custos:D	*	*	*	*	*	*	*
!LO:LB:g=original	!	!	!	!	!	!	!
=60-	=60-	=60-	=60-	=60-	=60-	=60-	=60-
*xywh-#180:4580,4480,3481,770	*	*	*	*	*	*	*
*	*	*lig	*	*	*	*	*
!	!	!	!	!	!	!	!LO:SIC:s=-vit
1D	.	1F	-ter-	.	.	0a	-uit
.	.	.	.	4e\	.	.	.
.	.	.	.	1d	.	.	.
1AA	-num	1E	.	.	.	.	.
.	.	.	.	2c#X/	.	.	.
*	*	*Xlig	*	*	*	*	*
=61-	=61-	=61-	=61-	=61-	=61-	=61-	=61-
2r	.	2D/	-num	[0dl	-num.	1f	in
1D	in	1A	in	.	.	.	.
!	!	!	!	!	!	!	!LO:SIC:s=ae-
.	.	.	.	.	.	1a	ę-
!	!LO:SIC:s=ae-	!	!LO:SIC:s=ae-	!	!	!	!
2D/	ę-	2F/	ę-	.	.	.	.
=62-	=62-	=62-	=62-	=62-	=62-	=62-	=62-
0GG	-ter-	0B-	-ter-	0d_	.	0g	-ter-
=63-	=63-	=63-	=63-	=63-	=63-	=63-	=63-
0Dl	-num.	0Al	-num.	0d]	.	0f#Xl	-num.
==	==	==	==	==	==	==	==
*-	*-	*-	*-	*-	*-	*-	*-
!!!system-decoration: [*]
!!LO:MO:ori
!!!RDF**kern: l = terminal long
!!LO:MO:mod
!! !!!RDF**kern: i = editorial accidental
!!LO:MO:end
!!!filter-modern: shed -e "s/^custos:/Xcustos:/I" | shed -e "s/LO:N:/LO:n:$1/L" | shed -e "s/TX(.*):t=P:/tx$1:t=P:/LG" | sic -sq | modori -m | autostem -r | tie -s | humtr -p | shed -e "s/-//B" | autobeam
!!!ENC: Mateusz Solarz
!!!END: 2022-07-06
!!!EED: Andrzej Kubiczek
!!!EEV: 2025-02-26
!!!ENC-modern: Andrzej Kubiczek
!!!END-modern: 2025-02-26
!!!ENC-iiif: Lidia Bialucha
!!!END-iiif: 2022-09-13
